X: 1
T:Drowsy Maggie
C:Trad
R:Reel
M:C|
K:EDor
Z:
L:1/8
(3EEE BE dEBE|(3EEE BE AFDF|(3EEE BE dEBE|BABc dAFD:|
d2 fd c2 ec|defg afge|d2 fd c2 ec|BABc dAFD|
d2 fd c2 ec|defg afge|afge fdec|BABc dAFD|
